X: 120
M:2/4
L:1/16
K:G
v.D2vGuF GABc|.d2vfud .g2.G2|.E2cB AGFA|GFGD CB,A,G,|
.D2GF GABc|dgfa gdBG|Ec"4"ec BAGF|G2G2G2z2:|
|:vBdgd cBcd|vecBc A^GAB|cfaf dcBc|dFGD CB,A,G,|


